01-contenus-du-cours/07-algorithmes-de-tri/images/card-class.svg

<svg xmlns="http://www.w3.org/2000/svg" xmlns:xlink="http://www.w3.org/1999/xlink" contentStyleType="text/css" data-diagram-type="CLASS" height="167px" preserveAspectRatio="none" style="width:233px;height:167px;background:#FFFFFF;" version="1.1" viewBox="0 0 233 167" width="233px" zoomAndPan="magnify"><defs/><g><!--class Card--><g class="entity" data-entity="Card" data-source-line="6" data-uid="ent0002" id="entity_Card"><rect fill="#FFFFFF" height="141.7813" rx="2.5" ry="2.5" style="stroke:#000000;stroke-width:1;" width="207.8291" x="12" y="12"/><ellipse cx="93.8408" cy="26" fill="#FFFFFF" rx="9" ry="9" style="stroke:#000000;stroke-width:1;"/><path d="M96.8096,31.6406 Q96.2314,31.9375 95.5908,32.0781 Q94.9502,32.2344 94.2471,32.2344 Q91.7471,32.2344 90.4189,30.5938 Q89.1064,28.9375 89.1064,25.8125 Q89.1064,22.6875 90.4189,21.0313 Q91.7471,19.375 94.2471,19.375 Q94.9502,19.375 95.5908,19.5313 Q96.2471,19.6875 96.8096,19.9844 L96.8096,22.7031 Q96.1846,22.125 95.5908,21.8594 Q94.9971,21.5781 94.3721,21.5781 Q93.0283,21.5781 92.3408,22.6563 Q91.6533,23.7188 91.6533,25.8125 Q91.6533,27.9063 92.3408,28.9844 Q93.0283,30.0469 94.3721,30.0469 Q94.9971,30.0469 95.5908,29.7813 Q96.1846,29.5 96.8096,28.9219 L96.8096,31.6406 Z " fill="#000000"/><text fill="#000000" font-family="Verdana" font-size="14" font-weight="bold" lengthAdjust="spacing" textLength="36.6475" x="111.3408" y="30.8467">Card</text><line style="stroke:#000000;stroke-width:1;" x1="13" x2="218.8291" y1="40" y2="40"/><text fill="#000000" font-family="Verdana" font-size="14" lengthAdjust="spacing" textLength="70.7109" x="18" y="56.9951">-value: int</text><text fill="#000000" font-family="Verdana" font-size="14" lengthAdjust="spacing" textLength="70.6699" x="18" y="73.292">-suit: char</text><line style="stroke:#000000;stroke-width:1;" x1="13" x2="218.8291" y1="80.5938" y2="80.5938"/><text fill="#000000" font-family="Verdana" font-size="14" lengthAdjust="spacing" textLength="195.8291" x="18" y="97.5889">+Card(value: int, suit: char)</text><text fill="#000000" font-family="Verdana" font-size="14" lengthAdjust="spacing" textLength="112.5947" x="18" y="113.8857">+getValue(): int</text><text fill="#000000" font-family="Verdana" font-size="14" lengthAdjust="spacing" textLength="112.8545" x="18" y="130.1826">+getSuit(): char</text><text fill="#000000" font-family="Verdana" font-size="14" lengthAdjust="spacing" textLength="129.4385" x="18" y="146.4795">+toString(): String</text></g><!--SRC=[NOxB2i8m44NtynNZhaK5rzs98BWET3zjXpQO9YMP22h-kqd41-xcddkup4ecdXaNGze2XBEs2tcQiJSKmbx4wouAdtfdbRunxlwLexEYv6eOEsS6W0BnG7x0Eo1kyK8cSeFQIeaXQccmdyYdk2vYzLKsFtrTX96bpNLLlpSAKqdBw3CaJgLVxPZXwu87F040]--></g></svg>

<svg xmlns="http://www.w3.org/2000/svg" width="233" height="167" data-diagram-type="CLASS" preserveAspectRatio="none" style="width:233px;height:167px;background:#fff" viewBox="0 0 233 167"><g class="entity" data-entity="Card" data-source-line="6" data-uid="ent0002"><rect width="207.829" height="141.781" x="12" y="12" fill="#fff" rx="2.5" ry="2.5" style="stroke:#000;stroke-width:1"/><circle cx="93.841" cy="26" r="9" fill="#fff" style="stroke:#000;stroke-width:1"/><path d="M96.81 31.64q-.579.297-1.22.438-.64.156-1.343.156-2.5 0-3.828-1.64-1.313-1.657-1.313-4.782t1.313-4.78q1.328-1.657 3.828-1.657.703 0 1.344.156.656.157 1.219.453v2.72q-.625-.579-1.22-.845-.593-.28-1.218-.28-1.344 0-2.031 1.077-.688 1.063-.688 3.157 0 2.093.688 3.171.687 1.063 2.031 1.063.625 0 1.219-.266.594-.281 1.219-.86z"/><text x="111.341" y="30.847" font-family="Verdana" font-size="14" font-weight="bold" textLength="36.648">Card</text><path d="M13 40h205.829" style="stroke:#000;stroke-width:1"/><text x="18" y="56.995" font-family="Verdana" font-size="14" textLength="70.711">-value: int</text><text x="18" y="73.292" font-family="Verdana" font-size="14" textLength="70.67">-suit: char</text><path d="M13 80.594h205.829" style="stroke:#000;stroke-width:1"/><text x="18" y="97.589" font-family="Verdana" font-size="14" textLength="195.829">+Card(value: int, suit: char)</text><text x="18" y="113.886" font-family="Verdana" font-size="14" textLength="112.595">+getValue(): int</text><text x="18" y="130.183" font-family="Verdana" font-size="14" textLength="112.855">+getSuit(): char</text><text x="18" y="146.48" font-family="Verdana" font-size="14" textLength="129.439">+toString(): String</text></g></svg>
